_site/assets/images/rrss/blog.svg

<svg enable-background="new 0 0 512 512" height="512" viewBox="0 0 512 512" width="512" xmlns="http://www.w3.org/2000/svg"><path d="m464 64v416h-384c-17.672 0-32-14.313-32-32s14.328-32 32-32h352v-416h-352c-35.344 0-64 28.656-64 64v384c0 35.344 28.656 64 64 64h416v-448zm-384 64v-32-64h320v352h-320zm256-32h-192v-32h192zm-64 64h-128v-32h128zm-64 64h-64v-32h64z" fill="#fff"/></svg>

<?xml version="1.0" encoding="utf-8"?>
<!-- Generator: Adobe Illustrator 16.0.0, SVG Export Plug-In . SVG Version: 6.00 Build 0)  -->
<!DOCTYPE svg PUBLIC "-//W3C//DTD SVG 1.1//EN" "http://www.w3.org/Graphics/SVG/1.1/DTD/svg11.dtd">
<svg version="1.1" id="Layer_1" xmlns="http://www.w3.org/2000/svg" xmlns:xlink="http://www.w3.org/1999/xlink" x="0px" y="0px"
	 width="512px" height="512px" viewBox="0 0 512 512" enable-background="new 0 0 512 512" xml:space="preserve">
<path fill="white" d="M464,64v416H80c-17.672,0-32-14.313-32-32s14.328-32,32-32h352V0H80C44.656,0,16,28.656,16,64v384c0,35.344,28.656,64,64,64
	h416V64H464z M80,128V96V32h320v352H80V128z M336,96H144V64h192V96z M272,160H144v-32h128V160z M208,224h-64v-32h64V224z"/>
</svg>
